X:3
T:Scottishe de Besanon
T:Scottishe  deux tons 
T:Scottish  Kerbeuf 
T:Scottishe  Dd
R:Scottiche
O:France
D:La Mirlitantouille
Z:anamnese@caramail.com
M:C
L:1/8
Q:1/4=150
K:C
G2c2 e2c2 | BcBA G4 | Bcde dcBc | defd e2c2 |\
G2c2 e2c2 | BcBA G4 | Bcde dcBc | dedB c4  :|
A2c2 e2c2 | BcBA B4 | Bcdc BAGA | B2c2 B2A2 |\
A2c2 e2c2 | BcBA B4 | Bcdc BAGA | B2c2 A4  :|
